img/star-blur.svg

<svg width="106" height="107" viewBox="0 0 106 107" fill="none" xmlns="http://www.w3.org/2000/svg">
<path d="M46.6344 106.652C46.1154 106.652 45.5838 106.601 45.0522 106.487C42.1158 105.893 39.8123 103.716 39.0402 100.817L31.9902 74.1489L6.01812 64.846C3.19561 63.8334 1.23378 61.3527 0.892044 58.3783C0.550306 55.4039 1.9046 52.5434 4.42334 50.9107L27.6109 35.9628L28.4336 8.39586C28.5222 5.39616 30.2689 2.7635 33.0028 1.51046C35.7241 0.270077 38.863 0.662427 41.1919 2.56097L62.5695 19.9897L89.0479 12.2562C91.9337 11.4209 94.9714 12.2562 96.9965 14.4712C99.0216 16.6862 99.6165 19.7871 98.528 22.5843L88.5543 48.3033L104.097 71.0985C105.78 73.5793 105.92 76.7436 104.439 79.3509C102.971 81.9582 100.199 83.4771 97.199 83.3125L69.6574 81.781L52.7857 103.602C51.2795 105.551 49.0139 106.639 46.6217 106.639L46.6344 106.652ZM11.005 57.2265L35.5089 66.0104C37.9264 66.8838 39.7743 68.8836 40.4325 71.377L47.09 96.5391L63.0125 75.9462C64.582 73.9084 67.0754 72.7819 69.6321 72.9211L95.6169 74.3641L80.9601 52.8598C79.5046 50.7335 79.2008 48.0249 80.1248 45.6327L89.5289 21.3693L64.544 28.6723C62.0759 29.3938 59.4053 28.8496 57.4055 27.2295L37.2302 10.788L36.4455 36.7981C36.3696 39.3675 35.0279 41.747 32.8636 43.1393L10.9923 57.2392L11.005 57.2265Z" fill="#FFF8C4"/>
</svg>

<svg width="106" height="107" fill="none" xmlns="http://www.w3.org/2000/svg"><path d="M46.634 106.652c-.519 0-1.05-.051-1.582-.165a7.793 7.793 0 0 1-6.012-5.67l-7.05-26.668-25.972-9.303a7.771 7.771 0 0 1-5.126-6.468 7.791 7.791 0 0 1 3.531-7.467l23.188-14.948.823-27.567a7.775 7.775 0 0 1 4.569-6.886 7.776 7.776 0 0 1 8.189 1.051L62.569 19.99l26.479-7.734c2.886-.835 5.923 0 7.948 2.215 2.026 2.215 2.62 5.316 1.532 8.113l-9.974 25.72 15.543 22.794c1.683 2.481 1.823 5.646.342 8.253a7.763 7.763 0 0 1-7.24 3.962L69.657 81.78l-16.871 21.821a7.756 7.756 0 0 1-6.164 3.037l.012.013ZM11.005 57.227l24.504 8.783a7.841 7.841 0 0 1 4.923 5.367l6.658 25.162 15.922-20.593a7.835 7.835 0 0 1 6.62-3.025l25.985 1.443L80.96 52.86a7.818 7.818 0 0 1-.835-7.227l9.404-24.264-24.985 7.303a7.852 7.852 0 0 1-7.138-1.442L37.23 10.788l-.784 26.01a7.825 7.825 0 0 1-3.582 6.341l-21.872 14.1.013-.012Z" fill="#FFF8C4"/></svg>
